storage/app/icons/phosphoricons/bold/circles-four-bold.svg

<svg xmlns="http://www.w3.org/2000/svg" fill="currentColor" viewBox="0 0 256 256"><path d="M78 36a42 42 0 1 0 42 42 42 42 0 0 0-42-42m0 60a18 18 0 1 1 18-18 18 18 0 0 1-18 18m100 24a42 42 0 1 0-42-42 42 42 0 0 0 42 42m0-60a18 18 0 1 1-18 18 18 18 0 0 1 18-18M78 136a42 42 0 1 0 42 42 42 42 0 0 0-42-42m0 60a18 18 0 1 1 18-18 18 18 0 0 1-18 18m100-60a42 42 0 1 0 42 42 42 42 0 0 0-42-42m0 60a18 18 0 1 1 18-18 18 18 0 0 1-18 18"/></svg>

<svg xmlns="http://www.w3.org/2000/svg" viewBox="0 0 256 256" fill="currentColor"><path d="M78,36a42,42,0,1,0,42,42A42,42,0,0,0,78,36Zm0,60A18,18,0,1,1,96,78,18,18,0,0,1,78,96Zm100,24a42,42,0,1,0-42-42A42,42,0,0,0,178,120Zm0-60a18,18,0,1,1-18,18A18,18,0,0,1,178,60ZM78,136a42,42,0,1,0,42,42A42,42,0,0,0,78,136Zm0,60a18,18,0,1,1,18-18A18,18,0,0,1,78,196Zm100-60a42,42,0,1,0,42,42A42,42,0,0,0,178,136Zm0,60a18,18,0,1,1,18-18A18,18,0,0,1,178,196Z"/></svg>
